images/icon/headphones.svg

<svg width="36" height="40" viewBox="0 0 36 40" fill="none" xmlns="http://www.w3.org/2000/svg">
<path d="M15.2346 40C15.2191 39.9167 15.1417 39.9226 15.0858 39.8988C14.4512 39.6166 14.1202 39.1297 14.1143 38.4344C14.1083 37.6403 14.0976 36.8462 14.1178 36.0522C14.1405 35.1295 14.7024 34.5199 15.6251 34.5009C17.2252 34.4687 18.8276 34.4675 20.4289 34.5033C21.3587 34.5235 21.935 35.1569 21.9254 36.1045C21.9219 36.4772 22.0409 36.52 22.3624 36.4915C23.4112 36.3986 24.4565 36.3117 25.4852 36.0462C27.7651 35.4581 29.0413 33.977 29.4568 31.6971C29.5556 31.159 29.6033 30.6149 29.6485 30.0708C29.6628 29.897 29.6235 29.8411 29.4473 29.8458C29.0699 29.8565 28.6925 29.8554 28.3151 29.847C27.7782 29.8363 27.5031 29.5756 27.4579 29.0422C27.4496 28.9386 27.4543 28.8339 27.4543 28.7303C27.4543 24.0693 27.4543 19.4083 27.4555 14.7473C27.4555 14.6045 27.4591 14.4604 27.4805 14.3199C27.5424 13.9139 27.7639 13.6866 28.171 13.6604C28.5854 13.633 29.0032 13.6401 29.4199 13.6449C29.6056 13.6473 29.6628 13.5842 29.6533 13.3937C29.4009 8.53983 27.1829 4.87056 22.8088 2.7502C18.2383 0.535786 13.8154 1.11677 9.82354 4.23957C7.32816 6.19207 5.91022 8.84341 5.46019 11.9972C5.39352 12.4639 5.409 12.9317 5.34828 13.3961C5.32328 13.5901 5.39947 13.6485 5.58282 13.6449C5.93403 13.6366 6.28643 13.6366 6.63764 13.6437C7.26268 13.6568 7.5246 13.9235 7.54603 14.5545C7.54841 14.6199 7.54603 14.6842 7.54603 14.7497C7.54603 19.4238 7.54603 24.0979 7.54484 28.772C7.54484 28.9267 7.5365 29.0851 7.5115 29.2375C7.44959 29.6006 7.22815 29.8446 6.86265 29.8482C5.65663 29.8589 4.44466 29.9792 3.24816 29.703C1.46353 29.291 0.276555 27.9636 0.0777342 26.148C0.0324934 25.7325 0.0110635 25.3182 0.012254 24.9015C0.0146351 22.7145 0.0134446 20.5274 0.0134446 18.3392C0.0134446 17.607 0.0896396 16.8844 0.364656 16.1986C0.923022 14.808 2.00166 14.058 3.42674 13.7663C3.71128 13.708 3.82795 13.6366 3.84343 13.3163C4.09702 8.15409 6.47573 4.25029 10.9486 1.69538C13.6654 0.142905 16.637 -0.314264 19.7325 0.204814C23.572 0.85009 26.5971 2.81568 28.8068 5.99682C30.3331 8.19457 31.1022 10.6685 31.1676 13.3496C31.1724 13.5663 31.1974 13.7032 31.4581 13.7473C33.6559 14.1211 34.9167 15.6474 34.9643 17.8237C35.0214 20.4393 35.0143 23.0573 34.9643 25.673C34.9333 27.2874 34.2488 28.5827 32.7427 29.3422C32.3582 29.5363 31.9522 29.6851 31.5272 29.7375C31.251 29.7708 31.1712 29.8708 31.1581 30.1494C31.101 31.2816 30.926 32.396 30.5343 33.4687C29.7426 35.6378 28.1568 36.9046 25.9721 37.4999C24.772 37.8273 23.5434 37.9392 22.31 38.0118C22.0421 38.0273 21.935 38.0796 21.9433 38.3856C21.9695 39.2428 21.4861 39.7428 20.7063 39.9988C18.88 40 17.0573 40 15.2346 40ZM6.01856 21.7204C6.01856 19.625 6.01975 17.5284 6.01737 15.4331C6.01737 15.2783 6.08642 15.0854 5.79235 15.0974C5.16851 15.1212 4.54347 15.0771 3.92082 15.1557C2.59217 15.3247 1.71473 16.1796 1.55758 17.507C1.41948 18.6738 1.50996 19.8476 1.49925 21.0179C1.48496 22.4883 1.47186 23.961 1.50877 25.4301C1.55401 27.2159 2.4624 28.1565 4.23274 28.3076C4.69824 28.3469 5.1697 28.3136 5.63639 28.3446C5.93403 28.3636 6.02927 28.2862 6.02689 27.9683C6.01141 25.8861 6.01856 23.8026 6.01856 21.7204ZM28.9818 21.7275C28.9818 23.836 28.9842 25.9432 28.977 28.0517C28.9759 28.2707 29.0009 28.3803 29.264 28.3648C29.7176 28.3386 30.1747 28.3684 30.6295 28.3481C32.3808 28.2719 33.3964 27.2624 33.4416 25.5146C33.4809 23.9931 33.4785 22.4704 33.4892 20.9477C33.4964 19.9584 33.5249 18.969 33.4868 17.982C33.4297 16.476 32.7035 15.5569 31.3855 15.2593C30.7057 15.1057 30.0116 15.1878 29.3247 15.1521C29.0139 15.1354 28.9723 15.2462 28.9735 15.5212C28.9866 17.5892 28.9818 19.6583 28.9818 21.7275ZM18.0038 38.4916C18.705 38.4916 19.4074 38.4844 20.1087 38.4963C20.3325 38.4999 20.4349 38.4559 20.4289 38.2011C20.4123 37.5522 20.4158 36.901 20.4277 36.2522C20.4313 36.0629 20.3753 36.0117 20.1872 36.0129C18.7443 36.02 17.3025 36.02 15.8596 36.0129C15.6679 36.0117 15.6203 36.0724 15.6239 36.2557C15.6334 36.9058 15.6417 37.5558 15.6215 38.2047C15.6132 38.4654 15.7156 38.4999 15.9382 38.4963C16.6263 38.4844 17.3156 38.4916 18.0038 38.4916Z" fill="#56AEFF"/>
</svg>

<svg width="36" height="40" fill="none" xmlns="http://www.w3.org/2000/svg"><path d="M15.235 40c-.016-.083-.093-.077-.15-.101-.634-.282-.965-.77-.97-1.465-.007-.794-.017-1.588.003-2.382.022-.922.584-1.532 1.507-1.551 1.6-.032 3.203-.033 4.804.002.93.02 1.506.654 1.496 1.602-.003.372.116.415.437.387 1.05-.093 2.095-.18 3.123-.446 2.28-.588 3.556-2.069 3.972-4.349.099-.538.146-1.082.191-1.626.015-.174-.024-.23-.2-.225-.378.01-.756.01-1.133.001-.537-.01-.812-.271-.857-.805-.008-.103-.004-.208-.004-.312 0-4.66 0-9.322.002-13.983 0-.143.003-.287.024-.427.062-.406.284-.633.691-.66.414-.027.832-.02 1.249-.015.186.002.243-.06.233-.251-.252-4.854-2.47-8.523-6.844-10.644-4.57-2.214-8.994-1.633-12.985 1.49C7.328 6.192 5.91 8.843 5.46 11.997c-.066.467-.051.935-.112 1.4-.025.193.051.252.235.248.351-.008.703-.008 1.055-.001.625.013.887.28.908.91.002.066 0 .13 0 .196l-.001 14.022c0 .155-.008.313-.034.466-.061.363-.283.607-.648.61-1.206.01-2.418.131-3.615-.145-1.784-.412-2.971-1.74-3.17-3.555-.046-.415-.067-.83-.066-1.247.003-2.186.001-4.374.001-6.562 0-.732.077-1.455.352-2.14.558-1.391 1.637-2.141 3.062-2.433.284-.058.4-.13.416-.45.254-5.162 2.633-9.066 7.106-11.62C13.665.142 16.637-.315 19.733.204c3.839.645 6.864 2.61 9.074 5.792 1.526 2.198 2.295 4.671 2.36 7.353.005.216.03.353.291.397 2.198.374 3.459 1.9 3.506 4.077.057 2.615.05 5.233 0 7.849-.03 1.614-.715 2.91-2.221 3.67-.385.193-.79.342-1.216.395-.276.033-.356.133-.369.411-.057 1.133-.232 2.247-.624 3.32-.791 2.169-2.377 3.436-4.562 4.03-1.2.328-2.429.44-3.662.513-.268.015-.375.068-.367.374.026.857-.457 1.357-1.237 1.613L15.235 40zM6.019 21.72c0-2.095 0-4.192-.002-6.287 0-.155.07-.348-.225-.336-.623.024-1.249-.02-1.871.059-1.329.169-2.206 1.024-2.363 2.351-.139 1.167-.048 2.34-.059 3.51-.014 1.471-.027 2.944.01 4.413.045 1.786.953 2.727 2.724 2.878.465.039.937.006 1.403.037.298.019.393-.059.39-.377-.015-2.082-.007-4.165-.007-6.248zm22.963.008c0 2.108.002 4.215-.005 6.324-.001.219.024.328.287.313.454-.026.91.003 1.366-.017 1.75-.076 2.766-1.086 2.812-2.833.039-1.522.036-3.045.047-4.567.007-.99.036-1.979-.002-2.966-.057-1.506-.784-2.425-2.102-2.723-.68-.153-1.373-.071-2.06-.107-.311-.017-.353.094-.351.37.013 2.067.008 4.136.008 6.205zM18.004 38.492c.701 0 1.403-.008 2.105.004.223.004.326-.04.32-.295-.017-.649-.013-1.3-.001-1.949.003-.19-.053-.24-.24-.24a439.63 439.63 0 01-4.328 0c-.192 0-.24.06-.236.244.01.65.018 1.3-.003 1.949-.008.26.095.295.317.291.688-.012 1.378-.004 2.066-.004z" fill="#56AEFF"/></svg>
